X:1
T:Title
%%score { 1 | ( 2 3 ) }
L:1/8
Q:1/4=100
M:4/4
K:F
V:1 treble nm="Grand Piano"
V:2 treble 
V:3 treble 
V:1
 A2 A>A AGAB | [Ac]6 A2 | c3 A A2 [CF]2 | [CEG]6 z2 | A2 A>B cABd | c6 A2 | A3 G A2 =B2 | %7
w: J.~B.~Trowbridge * * * * * *|||||||
 [Ec]6 z2 | [EB]2 [EB]>[EB] AGFG | A6 c2 | [Fd]3 [A,FA] [A,DF]2 .[G,DG]2 |[M:3/4] [^CA]6 | %12
w: |||||
[M:1/4] [A,^CE]2 |[M:4/4] [A,DF]3 [A,DF] [CEG]2 [CEG]2 | [CFA]2 [DFB]2 [CFc]2 [Fd]2 | %15
w: |||
 [Fc]3 [A,FA] [=B,DF]2 .[_B,EG]2 | [A,CF]8 |] %17
w: ||
V:2
 [F,CF]2 [F,CF]>[F,CF] [F,CF][B,CE][A,CF][G,CG] | [F,C]6 [F,CF]2 | [F,A,F]3 [F,CF] [F,CF]2 A,,2 | %3
 C,6 z2 | [F,CF]2 [F,CF]>[F,DF] [F,A,F][F,CF][F,DF][F,B,F] | [F,A,F]6 [F,CF]2 | %6
 [G,=B,F]3 [G,B,F] [G,CF]2 [G,DF]2 | [C,C]6 z2 | [C,C]2 [C,C]>[C,C] [F,CF][B,CE][A,C][G,CE] | %9
 [F,CF]6 [F,A,F]2 | [D,A,]3 D, D,2 z D, |[M:3/4] [A,,E,]6 |[M:1/4] A,,2 |[M:4/4] D,3 D, C,2 C,2 | %14
 F,2 D,2 A,,2 [B,,B,]2 | [C,A,]3 D, G,2 z C | F,8 |] %17
V:3
 x8 | x8 | x8 | x8 | x8 | x8 | x8 | x8 | x8 | x8 | z4 z2 B,,2 |[M:3/4] x6 |[M:1/4] x2 |[M:4/4] x8 | %14
 x8 | z4 z2 C,2 | x8 |] %17

